dist/images/phone.svg

<svg width="22px" height="22px" viewBox="0 0 22 22" version="1.1" xmlns="http://www.w3.org/2000/svg" xmlns:xlink="http://www.w3.org/1999/xlink">
    <path d="M0.194130354,2.82321499 L2.33744233,0.401741895 C2.33744233,0.401741895 3.54887953,-0.43646033 4.94669169,0.308608314 C6.34450384,1.14681054 8.76737825,3.75455079 7.92869096,5.24468808 C7.09000366,6.73482537 6.34450384,7.38676043 6.34450384,7.38676043 C6.34450384,7.38676043 5.3194416,7.75929475 6.62406628,9.24943204 C8.20825339,11.1121037 10.9106902,13.7198439 12.6812523,15.3031148 C14.1722519,16.6069849 14.6381893,15.5825155 14.6381893,15.5825155 C14.6381893,15.5825155 15.1973142,14.9305805 16.6883138,14.0923782 C18.1793134,13.254176 20.7885628,15.5825155 21.6272501,16.9795192 C22.4659374,18.3765229 21.6272501,19.5872595 21.6272501,19.5872595 L19.1111882,21.8224654 C12.8676272,23.7782706 -1.85599414,9.06316488 0.194130354,2.82321499 Z" fill="#2D98C2"></path>
</svg>

<svg width="22" height="22" xmlns="http://www.w3.org/2000/svg"><path d="M.194 2.823L2.337.402S3.55-.436 4.947.309c1.398.838 3.82 3.446 2.982 4.936-.839 1.49-1.584 2.142-1.584 2.142s-1.026.372.28 1.862c1.583 1.863 4.286 4.47 6.056 6.054 1.491 1.304 1.957.28 1.957.28s.56-.652 2.05-1.49c1.491-.839 4.1 1.49 4.94 2.887.838 1.397 0 2.607 0 2.607l-2.517 2.235C12.868 23.778-1.856 9.063.194 2.823z" fill="#2D98C2"/></svg>
